X:970
T:Sprigs of Laurel
C:1790?
S:Colin Hume's website,  colinhume.com  - chords can also be printed below the stave.
Q:1/4=120
N:Second time bar added by Colin Hume
M:2/4
R:Reel
L:1/8
%%MIDI gchord fzczfzcz
%%MIDI ratio 3 1
K:D
P:A
|: a | "D"fafa | "/"a/b/a/g/ fa | "Em"gf"A7"ge | "D"f/g/f/e/ da |\
"D"fafa | "/"a/b/a/g/ fa | "Em"gf"A7"ge | "D"d3 :|
P:B
|: A | "D"d>efd | "A"c/d/c/B/ AA | "G"B>cdB | "A7"A/B/A/G/ "D"FA |\
"D"d>efd | "A"c/d/c/B/ AA | "G"GF"Em"ED |1 "A7"A3 :|2 "D"D3 |]

